X:1
T:The Braes O' Killie Crankie
M:6/8
L:1/4
K:C
 E/2| A A/2 A G/2| E E/2 E F/2| G A/2 G E/2| D C/2 A, G,/2| A, B,/2 C D/2|\
 E E/2 E E/2| E D/2 C D/2| E3/2 E3/2|
